img/Corona.svg

<svg width="56" height="25" viewBox="0 0 56 25" fill="none" xmlns="http://www.w3.org/2000/svg">
<path d="M48.6603 25H7.14881C6.74555 25 6.38709 24.7442 6.25645 24.364L0.0509978 6.30803C-0.117432 5.81579 0.14493 5.28101 0.637803 5.11191C0.788958 5.06075 0.946592 5.04782 1.09289 5.07367C1.43407 5.0936 1.75203 5.29933 1.89941 5.63323C2.66652 7.37112 5.39541 12.9817 8.57884 12.9817C8.61825 12.9817 8.6582 12.9807 8.69869 12.9785C10.6189 12.8934 13.622 10.6827 17.0246 0.639797C17.1547 0.257427 17.5137 0 17.9181 0C18.3229 0 18.6819 0.257427 18.812 0.639797C19.9738 4.06443 23.8676 12.9263 27.911 12.9263C27.9218 12.9263 27.9321 12.9257 27.9434 12.9257C29.8604 12.9026 32.8079 10.7564 35.9644 0.6608C36.088 0.267121 36.4524 0 36.8654 0H36.8745C37.2913 0.00430839 37.6557 0.280046 37.7712 0.679111C38.7359 3.99334 42.1574 12.6742 46.3541 13.0367C48.8061 13.2381 51.5247 10.4699 54.2088 5.00205C54.4269 4.55559 54.957 4.35471 55.4175 4.5459C55.8769 4.736 56.1101 5.24978 55.9492 5.72047L49.5532 24.364C49.422 24.7447 49.0636 25 48.6603 25ZM7.82253 23.1178H47.9855L51.6818 12.3436C49.8955 14.2296 48.0816 15.0708 46.19 14.9124C41.542 14.5091 38.3526 7.82728 36.8697 3.89964C34.2504 11.1937 31.3261 14.7681 27.965 14.8074C27.9467 14.8074 27.9294 14.8085 27.911 14.8085C23.2139 14.8085 19.5878 7.62478 17.9451 3.66214C15.1422 11.0408 12.1342 14.7094 8.78236 14.8591C7.06405 14.9254 5.56762 14.0712 4.27902 12.804L7.82253 23.1178Z" fill="#A07B50"/>
</svg>

<svg width="56" height="25" fill="none" xmlns="http://www.w3.org/2000/svg"><path d="M48.66 25H7.15a.943.943 0 01-.893-.636L.051 6.308a.942.942 0 011.042-1.234.94.94 0 01.806.56c.768 1.737 3.496 7.348 6.68 7.348l.12-.003c1.92-.086 4.923-2.296 8.326-12.34a.944.944 0 011.787 0c1.162 3.425 5.056 12.287 9.099 12.287h.032c1.917-.023 4.865-2.17 8.021-12.265A.943.943 0 0136.865 0h.01c.416.004.78.28.896.68.965 3.313 4.386 11.994 8.583 12.357 2.452.201 5.17-2.567 7.855-8.035a.943.943 0 011.74.718l-6.396 18.644a.944.944 0 01-.893.636zM7.823 23.118h40.163l3.696-10.774c-1.787 1.886-3.6 2.727-5.492 2.568-4.648-.403-7.837-7.085-9.32-11.012-2.62 7.294-5.544 10.868-8.905 10.907l-.054.002c-4.697 0-8.323-7.184-9.966-11.147-2.803 7.379-5.81 11.047-9.163 11.197-1.718.066-3.214-.788-4.503-2.055l3.544 10.314z" fill="#A07B50"/></svg>
